X:1405
T:Direktorsvals
A:Rros
C:e. Magne Haugom
M:3/4
N: from Eggen (Tron Westberg) Rros
O:Norway
R:Waltz
Z:Carol Turner
%%TUNEURL: http://www.leeds.ac.uk/music/Info/RRTuneBk/gettune/00000ee9.html
%%ID:00000ee9
K:D
f2|:\
d3 d  d2 | A3 B AG | F2 FG EF | D4 A,2 |
f2 ef gf | e3 f ed | ce ge ce |1 d4 ef :|2 d3 F FG ||
|:\
A2 B2 c2 | d2 c2 d2 | B3 c  dB |  B2 A2 G2 |
F2 G2 A2 | B3 A  GF | E2 GE CE |1 D3 F FG :|2 D4 f2|d6|]
